assets/img/menubutton.svg

<svg height="84" viewBox="0 0 84 84" width="84" xmlns="http://www.w3.org/2000/svg" xmlns:xlink="http://www.w3.org/1999/xlink"><filter id="a" filterUnits="userSpaceOnUse" height="67" width="57" x="4.5" y="14.5"><feOffset/><feGaussianBlur result="blur" stdDeviation="2.5"/><feFlood flood-color="#aac7e5"/><feComposite in2="blur" operator="in"/><feComposite in="SourceGraphic"/></filter><filter id="b" filterUnits="userSpaceOnUse" height="30" width="68" x="4.5" y="4.5"><feOffset/><feGaussianBlur result="blur-2" stdDeviation="2.5"/><feFlood flood-color="#aac7e5"/><feComposite in2="blur-2" operator="in"/><feComposite in="SourceGraphic"/></filter><clipPath id="c"><path d="m0 0h84v84h-84z"/></clipPath><g clip-path="url(#c)"><path d="m0 0h84v84h-84z" fill="#fff"/><path d="m3 14.333h78a3 3 0 0 1 3 3v78a3 3 0 0 1 -3 3h-78a3 3 0 0 1 -3-3v-78a3 3 0 0 1 3-3z" fill="#d0e0f0" transform="translate(0 -14.333)"/><g filter="url(#a)"><rect fill="#fff" height="52" rx="3" transform="translate(12 22)" width="42"/></g><g filter="url(#b)"><path d="m3 0h47a3 3 0 0 1 3 3v9a3 3 0 0 1 -3 3h-50a0 0 0 0 1 0 0v-12a3 3 0 0 1 3-3z" fill="#185a69" transform="translate(12 12)"/></g><g fill="#6a6a6a"><path d="m0 0h26v2h-26z" transform="translate(20 54)"/><path d="m0 0h26v2h-26z" transform="translate(20 44)"/><path d="m0 0h21v2h-21z" transform="translate(20 64)"/><path d="m0 0h21v2h-21z" transform="translate(20 34)"/></g><path d="m0 0h28.094v2h-28.094z" fill="#fff" transform="translate(23.811 19)"/><path d="m11.214 12.214h-3.937l2.072 5.046a.689.689 0 0 1 -.35.891l-1.824.8a.656.656 0 0 1 -.866-.36l-1.969-4.798-3.216 3.307a.657.657 0 0 1 -1.124-.476v-15.945a.657.657 0 0 1 1.124-.479l10.554 10.858a.68.68 0 0 1 -.464 1.156z" fill="#215a9c" transform="translate(61.125 29)"/></g></svg>

<svg xmlns="http://www.w3.org/2000/svg" xmlns:xlink="http://www.w3.org/1999/xlink" width="84" height="84" viewBox="0 0 84 84">
  <defs>
    <filter id="Rectangle_570" x="4.5" y="14.5" width="57" height="67" filterUnits="userSpaceOnUse">
      <feOffset input="SourceAlpha"/>
      <feGaussianBlur stdDeviation="2.5" result="blur"/>
      <feFlood flood-color="#aac7e5"/>
      <feComposite operator="in" in2="blur"/>
      <feComposite in="SourceGraphic"/>
    </filter>
    <filter id="Rectangle_569" x="4.5" y="4.5" width="68" height="30" filterUnits="userSpaceOnUse">
      <feOffset input="SourceAlpha"/>
      <feGaussianBlur stdDeviation="2.5" result="blur-2"/>
      <feFlood flood-color="#aac7e5"/>
      <feComposite operator="in" in2="blur-2"/>
      <feComposite in="SourceGraphic"/>
    </filter>
    <clipPath id="clip-menubutton">
      <rect width="84" height="84"/>
    </clipPath>
  </defs>
  <g id="menubutton" clip-path="url(#clip-menubutton)">
    <rect width="84" height="84" fill="#fff"/>
    <g id="Group_303" data-name="Group 303" transform="translate(-890 -357)">
      <path id="Union_25" data-name="Union 25" d="M3,14.333H81a3,3,0,0,1,3,3v78a3,3,0,0,1-3,3H3a3,3,0,0,1-3-3v-78A3,3,0,0,1,3,14.333Z" transform="translate(890 342.667)" fill="#d0e0f0"/>
      <g transform="matrix(1, 0, 0, 1, 890, 357)" filter="url(#Rectangle_570)">
        <rect id="Rectangle_570-2" data-name="Rectangle 570" width="42" height="52" rx="3" transform="translate(12 22)" fill="#fff"/>
      </g>
      <g transform="matrix(1, 0, 0, 1, 890, 357)" filter="url(#Rectangle_569)">
        <path id="Rectangle_569-2" data-name="Rectangle 569" d="M3,0H50a3,3,0,0,1,3,3v9a3,3,0,0,1-3,3H0a0,0,0,0,1,0,0V3A3,3,0,0,1,3,0Z" transform="translate(12 12)" fill="#185a69"/>
      </g>
      <rect id="Rectangle_572" data-name="Rectangle 572" width="26" height="2" transform="translate(910 411)" fill="#6a6a6a"/>
      <rect id="Rectangle_573" data-name="Rectangle 573" width="26" height="2" transform="translate(910 401)" fill="#6a6a6a"/>
      <rect id="Rectangle_574" data-name="Rectangle 574" width="21" height="2" transform="translate(910 421)" fill="#6a6a6a"/>
      <rect id="Rectangle_575" data-name="Rectangle 575" width="21" height="2" transform="translate(910 391)" fill="#6a6a6a"/>
      <rect id="Rectangle_576" data-name="Rectangle 576" width="28.094" height="2" transform="translate(913.811 376)" fill="#fff"/>
      <path id="Icon_awesome-mouse-pointer" data-name="Icon awesome-mouse-pointer" d="M11.214,12.214H7.277L9.349,17.26a.689.689,0,0,1-.35.891l-1.824.8a.656.656,0,0,1-.866-.36L4.34,13.793,1.124,17.1A.657.657,0,0,1,0,16.624V.679A.657.657,0,0,1,1.124.2L11.678,11.058A.68.68,0,0,1,11.214,12.214Z" transform="translate(951.125 386)" fill="#215a9c"/>
    </g>
  </g>
</svg>
